!! "Xasan beguri" [Georgian/Caucacus] Instrumental work in 3 parts.
!! from Fritz Bose, 'Musikalische Voelkerkunde';
!! Freiburg: Atlantis-Musikbuecherei, 1953, pp.190-191
!! Performance duration: 22 sec.; performance tempo: 95 quarter-notes per minute.
**kern	**kern	**kern
*M4/4	*M4/4	*M4/4
=1	=1	=1
1r	{4.cc	1r
.	16dd	.
.	[16cc	.
.	2cc]	.
=2	=2	=2
2A	8cc	1r
.	8b	.
.	4a}	.
{4B	{4b	.
8G#	4g#}	.
8E}	.	.
=3	=3	=3
{4.F	{4.cc	8r
.	.	8ff
.	.	8ccc
8A	16dd	8ff
.	16cc	.
2G#}	2cc}	{8ccc
.	.	8ff
.	.	8gg#
.	.	8ff}
=4	=4	=4
2A	2cc	{8ccc
.	.	8ff
.	.	8gg#
.	.	8ff
{4B	{4dd	8ee
.	.	8g#}
8G#	4b}	4r
8E}	.	.
=5	=5	=5
{4.F	2cc	8r
.	.	{8ccc
.	.	8bb
8A}	.	8aa
2G#	2r	8gg
.	.	8ff
.	.	8bb
.	.	8aa}
=6	=6	=6
2A	1r	{8gg#
.	.	8ff
.	.	8ee
.	.	8ff}
{4B	.	{8dd
.	.	8b}
8G#	.	4r
8E}	.	.
=7	=7	=7
{4E	4cc	1r
8F#	4dd	.
8G#	.	.
4A	4ee	.
4b}	4ff#	.
=8	=8	=8
[2c	[{2ee	{4.ee
.	.	8dd
8c]	8ee]	8ee
8B	8dd	8ff#
4c	4ee}	4ee}
=9	=9	=9
1B	1b	4r
.	.	{32cc#
.	.	8..dd}
.	.	{4.dd
.	.	8cc}
!! "and so on."
====	====	====
*-	*-	*-
